exchanges/svgicons/deribit.svg

<svg width="18" height="18" viewBox="0 0 18 18" fill="none" xmlns="http://www.w3.org/2000/svg">
<path d="M0 0H18V18H0V0Z" fill="#25AF9A"/>
<path d="M8 4H6V6H4V8H6V10H4V12H6V14H8V12H9V14H11V12H12C12.7956 12 13.5587 11.6839 14.1213 11.1213C14.6839 10.5587 15 9.79565 15 9C15 8.20435 14.6839 7.44129 14.1213 6.87868C13.5587 6.31607 12.7956 6 12 6H11V4H9V6H8V4ZM8 10V8H12C12.2652 8 12.5196 8.10536 12.7071 8.29289C12.8946 8.48043 13 8.73478 13 9C13 9.26522 12.8946 9.51957 12.7071 9.70711C12.5196 9.89464 12.2652 10 12 10H8Z" fill="white"/>
</svg>

<svg width="32" height="32" viewBox="0 0 32 32" xmlns="http://www.w3.org/2000/svg"><path fill="#25AF9A" d="M0 0h18v18H0z"/><path d="M8 4H6v2H4v2h2v2H4v2h2v2h2v-2h1v2h2v-2h1a3 3 0 100-6h-1V4H9v2H8V4zm0 6V8h4a1 1 0 110 2H8z" fill="#fff"/></svg>
